app/src/main/assets/symbols/tourist/ruin.svg

<?xml version="1.0" encoding="UTF-8"?>
<svg version="1.0" viewBox="0 0 580 580" xmlns="http://www.w3.org/2000/svg">
<path d="m73 144-3 36 20 2v197h-18v18h255l3 4 6-4h109v-18h-87l-98-142-3 2-4-44 71 5 2-36-253-20zm53 41 37 3v191h-36l-1-194zm73 5 18 2 17 187h-35v-189zm64 115 51 74h-44l-7-74z" color="#000000" color-rendering="auto" fill="#734a08" fill-rule="evenodd" image-rendering="auto" shape-rendering="auto" solid-color="#000000" isolation="auto" mix-blend-mode="normal" white-space="normal"/>
<path d="m53.6 433h449.4v-18h-449.4z" color="#000000" color-rendering="auto" fill="#734a08" fill-rule="evenodd" image-rendering="auto" shape-rendering="auto" solid-color="#000000" isolation="auto" mix-blend-mode="normal" white-space="normal"/>
<path d="m35.8 469h505.2v-18h-505.1z" color="#000000" color-rendering="auto" fill="#734a08" fill-rule="evenodd" image-rendering="auto" shape-rendering="auto" solid-color="#000000" isolation="auto" mix-blend-mode="normal" white-space="normal"/>
</svg>

<?xml version="1.0" encoding="UTF-8" standalone="no"?>
<svg xmlns="http://www.w3.org/2000/svg" version="1.0" width="580" height="580">
 <metadata id="metadata2975"/>
 <path id="path4148" d="M 73 144 L 70 180 L 90 182 L 90 379 L 72 379 L 72 397 L 327 397 L 330 401 L 336 397 L 445 397 L 445 379 L 358 379 L 260 237 L 257 239 L 253 195 L 324 200 L 326 164 L 73 144 z M 126 185 L 163 188 L 163 379 L 127 379 L 126 185 z M 199 190 L 217 192 L 234 379 L 199 379 L 199 190 z M 263 305 L 314 379 L 270 379 L 263 305 z " mix-blend-mode="normal" solid-color="#000000" white-space="normal" color-interpolation-filters="linearRGB" opacity="0.8" filter-gaussianBlur-deviation="0" color="#000000" image-rendering="auto" color-rendering="auto" stroke-width="64" isolation="auto" color-interpolation="sRGB" solid-opacity="1" fill="none" stroke-linejoin="round" filter-blend-mode="normal" stroke="#ffffff" shape-rendering="auto"/>
 <path id="path4150" d="m 53.6,433 449.4,0 0,-18 -449.4,0 z" mix-blend-mode="normal" solid-color="#000000" white-space="normal" color-interpolation-filters="linearRGB" opacity="0.8" filter-gaussianBlur-deviation="0" color="#000000" image-rendering="auto" color-rendering="auto" stroke-width="64" isolation="auto" color-interpolation="sRGB" solid-opacity="1" fill="none" stroke-linejoin="round" filter-blend-mode="normal" stroke="#ffffff" shape-rendering="auto"/>
 <path id="path4152" d="m 35.8,469 505.2,0 0,-18 -505.1,0 z" mix-blend-mode="normal" solid-color="#000000" white-space="normal" color-interpolation-filters="linearRGB" opacity="0.8" filter-gaussianBlur-deviation="0" color="#000000" image-rendering="auto" color-rendering="auto" stroke-width="64" isolation="auto" color-interpolation="sRGB" solid-opacity="1" fill="none" stroke-linejoin="round" filter-blend-mode="normal" stroke="#ffffff" shape-rendering="auto"/>
 <path d="M 73 144 L 70 180 L 90 182 L 90 379 L 72 379 L 72 397 L 327 397 L 330 401 L 336 397 L 445 397 L 445 379 L 358 379 L 260 237 L 257 239 L 253 195 L 324 200 L 326 164 L 73 144 z M 126 185 L 163 188 L 163 379 L 127 379 L 126 185 z M 199 190 L 217 192 L 234 379 L 199 379 L 199 190 z M 263 305 L 314 379 L 270 379 L 263 305 z " id="path4145" fill="#734a08" isolation="auto" color-rendering="auto" white-space="normal" solid-opacity="1" mix-blend-mode="normal" color-interpolation-filters="linearRGB" shape-rendering="auto" fill-rule="evenodd" image-rendering="auto" color-interpolation="sRGB" color="#000000" solid-color="#000000"/>
 <path d="m 53.6,433 449.4,0 0,-18 -449.4,0 z" id="path4137" fill="#734a08" isolation="auto" color-rendering="auto" white-space="normal" solid-opacity="1" mix-blend-mode="normal" color-interpolation-filters="linearRGB" shape-rendering="auto" fill-rule="evenodd" image-rendering="auto" color-interpolation="sRGB" color="#000000" solid-color="#000000"/>
 <path d="m 35.8,469 505.2,0 0,-18 -505.1,0 z" id="path2161" fill="#734a08" isolation="auto" color-rendering="auto" white-space="normal" solid-opacity="1" mix-blend-mode="normal" color-interpolation-filters="linearRGB" shape-rendering="auto" fill-rule="evenodd" image-rendering="auto" color-interpolation="sRGB" color="#000000" solid-color="#000000"/>
</svg>
